!!!COM: Aaron Copland
!!!OTL: [T723_Cop-w41p51m1h71m1-6]
**kern	**kern	**kern	**kern	**kern	**kern	**kern	**kern
*part8	*part7	*part6	*part5	*part4	*part3	*part2	*part1
*staff8	*staff7	*staff6	*staff5	*staff4	*staff3	*staff2	*staff1
*I"Contrabass	*I"Violoncello	*I"Viola	*I"Violin II	*I"Violin I	*I"Percussion	*I"Trombone	*I"Horn in F 1
*I'Cb.	*I'Vc.	*I'Vla.	*I'Vln. II	*I'Vln. I	*I'Perc.	*I'Tbn.	*I'Hn.
!!pagebreak:original
*	*	*	*	*	*stria4	*	*
*clefF4	*clefF4	*clefC3	*clefG2	*clefG2	*clefX	*clefF4	*clefG2
*ITrd0c0	*	*	*	*	*	*	*ITrd4c7
*k[f#c#g#d#]	*k[f#c#g#d#]	*k[f#c#g#d#]	*k[f#c#g#d#]	*k[f#c#g#d#]	*k[]	*k[f#c#g#d#]	*k[b-]
*E:	*E:	*E:	*E:	*E:	*C:	*E:	*
*M2/4	*M2/4	*M2/4	*M2/4	*M2/4	*M2/4	*M2/4	*M2/4
=1	=1	=1	=1	=1	=1	=1	=1
!	!	!	!	!	!	!	!LO:TX:t=[quarter]=144
!LO:TX:b:t=[p secco]	!LO:TX:b:t=[p secco]	!LO:TX:b:t=[p secco]	!LO:TX:b:t=[p secco]	!LO:TX:b:t=[p secco]	!LO:TX:b:t=[p secco]	!LO:TX:b:t=[p secco]	!LO:TX:b:t=[p secco]
!LO:TX:a:t=[at the frog]	!LO:TX:a:t=[at the frog]	!LO:TX:a:t=[at the frog]	!LO:TX:a:t=[at the frog]	!LO:TX:a:t=[at the frog]	!LO:TX:a:t=4 Temple Blocks	!LO:TX:a:t=[con sord.]	!LO:TX:a:t=[con sord.]
4r	4r	4r	8r	8r	8Re'/	8r	2r
.	.	.	8f#'v	8f#'v	8r	8f#'	.
8r	8r	8r	4r	4r	8Rdd^\	4r	.
(16C#uLL	(16CC#uLL 16C#	(16C#uLL	.	.	8r	.	.
16D#JJ	16DD#JJ 16D#	16D#JJ	.	.	.	.	.
=2	=2	=2	=2	=2	=2	=2	=2
8E')	8EE' 8E)	8E')	8r	8r	8Rb'\	8r	8E'
8r	8r	8r	8c#'u	8c#'u	8Rdd^\	8c#'	8r
8r	8r	8r	4r	4r	8r	4r	8r
8F#'v	8FF#'v 8F#	8F#'v	.	.	8Rg'/	.	8F#X'
=3	=3	=3	=3	=3	=3	=3	=3
4r	4r	4r	8r	8r	8Rdd^\	4r	4r
.	.	.	(16c#uLL	(16c#uLL	8r	.	.
.	.	.	16dnJJ	16dnJJ	.	.	.
8r	8r	8r	16e')	16e')	8Re'/	8e'	8r
.	.	.	16r	16r	.	.	.
8C#'u	8CC#'u 8C#	8C#'u	8r	8r	8r	8r	8C#X'
=4	=4	=4	=4	=4	=4	=4	=4
4r	4r	4r	8r	8r	8Rdd^\	8r	2r
.	.	.	8f#'v	8f#'v	8r	8f#'	.
8r	8r	8r	4r	4r	8Rb'\	4r	.
(16C#LL	(16CC#LL 16C#	(16C#LL	.	.	8Rdd^\	.	.
16D#JJ	16DD#JJ 16D#	16D#JJ	.	.	.	.	.
=5	=5	=5	=5	=5	=5	=5	=5
16ELL	16EELL 16E	16ELL	8r	8r	8r	8r	(16ELL
16F#'JJ)	16FF#'JJ 16F#)	16F#'JJ)	.	.	.	.	16F#X'JJ)
8r	8r	8r	8c#'u	8c#'u	8Rg'/	8c#'	8r
4r	4r	4r	4r	4r	8Rdd^\	4r	4r
.	.	.	.	.	8r	.	.
=6	=6	=6	=6	=6	=6	=6	=6
8r	8r	8r	8r	8r	8Re'/	4r	8r
8C#'	8CC#' 8C#	8C#'	(16c#LL	(16c#LL	8r^	.	8C#X'
.	.	.	16dnJJ	16dnJJ	.	.	.
8r	8r	8r	16eLL	16eLL	8Rdd^\	(16eLL	4r
.	.	.	16f#'JJ)	16f#'JJ)	.	16f#'JJ)	.
(16C#LL	(16CC#LL 16C#	(16C#LL	8r	8r	8r	8r	.
16D#JJ	16DD#JJ 16D#	16D#JJ	.	.	.	.	.
=7	=7	=7	=7	=7	=7	=7	=7
8E')	8EE' 8E)	8E')	8r	8r	8Rb'\	8r	8E'
8r'	8r'	8r'	8c#'	8c#'	8Rdd^\	8c#'	8r
8F#'	8FF#' 8F#	8F#'	8r	8r	8r	4r	8r
8r	8r	8r	(16c#LL	(16c#LL	8Rg'/	.	8F#X'
.	.	.	16dnJJ)	16dnJJ)	.	.	.
=	=	=	=	=	=	=	=
*-	*-	*-	*-	*-	*-	*-	*-
!!!system-decoration: [(s1,s2)][(s3)][(s4,s5,s6,s7,s8)]
